!!!COM:	Rachmaninoff, Sergei
!!!CDT:	1873/04/01–1943/03/28
!!!OTL@RU:	Nïne otpushchayeshi
!!!OTL@EN:	Now Lettest Thou
!!!OPS:	Op. 37
!!!ONM:	No. 5
**kern	**kern	**kern	**kern	**kern	**kern	**kern	**kern	**kern
*part9	*part8	*part7	*part6	*part5	*part4	*part3	*part2	*part1
*staff9	*staff8	*staff7	*staff6	*staff5	*staff4	*staff3	*staff2	*staff1
*I"Bass 2	*I"Bass 1	*I"Tenor 2	*I"Tenor 1	*I"Tenor Solo	*I"Alto 2	*I"Alto 1	*I"Soprano 2	*I"Soprano 1
*I'B 2	*I'B 1	*I'T 2	*I'T 1	*I'T	*I'A 2	*I'A 1	*I'S 2	*I'S 1
*clefF4	*clefF4	*clefGv2	*clefGv2	*clefGv2	*clefG2	*clefG2	*clefG2	*clefG2
*k[b-e-a-d-g-]	*k[b-e-a-d-g-]	*k[b-e-a-d-g-]	*k[b-e-a-d-g-]	*k[b-e-a-d-g-]	*k[b-e-a-d-g-]	*k[b-e-a-d-g-]	*k[b-e-a-d-g-]	*k[b-e-a-d-g-]
*b-:	*b-:	*b-:	*b-:	*b-:	*b-:	*b-:	*b-:	*b-:
*M4/4	*M4/4	*M4/4	*M4/4	*M4/4	*M4/4	*M4/4	*M4/4	*M4/4
=1	=1	=1	=1	=1	=1	=1	=1	=1
1r	1r	1r	4d-	1r	4g-	4b-	1r	1r
.	.	.	4B-	.	4f	4a-	.	.
.	.	.	4d-	.	4g-	4b-	.	.
.	.	.	4B-	.	4f	4a-	.	.
=2	=2	=2	=2	=2	=2	=2	=2	=2
1r	1r	1r	4d-	8d-	4g-	4b-	1r	1r
.	.	.	.	8d-	.	.	.	.
.	.	.	4B-	8d-	4f	4a-	.	.
.	.	.	.	8e-	.	.	.	.
.	.	.	4d-	2f	2f	4b-	.	.
.	.	.	4B-	.	.	4a-	.	.
=3	=3	=3	=3	=3	=3	=3	=3	=3
1r	1r	1r	4e-	8e-	4g-	4b-	1r	1r
.	.	.	.	8e-	.	.	.	.
.	.	.	4B-	8e-	4f	4a-	.	.
.	.	.	.	8e-	.	.	.	.
.	.	.	4e-	4e-	4g-	4b-	.	.
.	.	.	4B-	8e-	4f	4a-	.	.
.	.	.	.	8e-	.	.	.	.
=4	=4	=4	=4	=4	=4	=4	=4	=4
!!pagebreak:original
*M2/4	*M2/4	*M2/4	*M2/4	*M2/4	*M2/4	*M2/4	*M2/4	*M2/4
2r	2r	2r	4e-	4.e-	4g-	4b-	2r	2r
.	.	.	4B-	.	4f	4a-	.	.
.	.	.	.	8f	.	.	.	.
=5	=5	=5	=5	=5	=5	=5	=5	=5
*M4/4	*M4/4	*M4/4	*M4/4	*M4/4	*M4/4	*M4/4	*M4/4	*M4/4
1r	1r	1r	4d-	2.d-	4g-	4b-	1r	1r
.	.	.	4B-	.	4f	4a-	.	.
.	.	.	4d-	.	4g-	4b-	.	.
.	.	.	4A-	4c	4e-	4a-	.	.
=6	=6	=6	=6	=6	=6	=6	=6	=6
1r	1r	1B-	4d-	1B-	4g-	4b-	1r	1r
.	.	.	4B-	.	4f	4a-	.	.
.	.	.	4d-	.	4g-	4b-	.	.
.	.	.	4e-	.	4a-	4cc	.	.
=7	=7	=7	=7	=7	=7	=7	=7	=7
1r	1r	1r	4g-	4e-	4b-	4dd-	1r	1r
.	.	.	4d-	4f	4f	4b-	.	.
.	.	.	4g-	4g-	4b-	4dd-	.	.
.	.	.	4d-	4f	4f	4b-	.	.
=8	=8	=8	=8	=8	=8	=8	=8	=8
1r	1r	1r	4f	4e-	4a-	4cc	1r	1r
.	.	.	4c	8e-L	4e-	4a-	.	.
.	.	.	.	8d-J	.	.	.	.
.	.	.	4f	8cL	4a-	4cc	.	.
.	.	.	.	8d-J	.	.	.	.
.	.	.	4c	4e-	4e-	4a-	.	.
=9	=9	=9	=9	=9	=9	=9	=9	=9
!!pagebreak:original
1r	1r	1r	4d-	2.d-	4g-	4b-	1r	1r
.	.	.	4B-	.	4f	4a-	.	.
.	.	.	4d-	.	4g-	4b-	.	.
.	.	.	4A-	4c	4e-	4a-	.	.
=10	=10	=10	=10	=10	=10	=10	=10	=10
1r	1r	[1B-	4d-	1B-	4g-	4b-	1r	1r
.	.	.	4B-	.	4f	4a-	.	.
.	.	.	4d-	.	4g-	4b-	.	.
.	.	.	4B-	.	4f	4a-	.	.
=11	=11	=11	=11	=11	=11	=11	=11	=11
1r	1r	1B-_	4d-	4f	4f	4b-	8dd-	8dd-
.	.	.	.	.	.	.	8dd-	8dd-
.	.	.	4B-	4f	4d-	4a-	8dd-	8dd-
.	.	.	.	.	.	.	8ee-	8ee-
.	.	.	4d-	4f	4f	4b-	[2ff	[2ff
.	.	.	4B-	8f	4d-	8a-L	.	.
.	.	.	.	8g-	.	8b-J	.	.
=12	=12	=12	=12	=12	=12	=12	=12	=12
1r	1r	1B-_	4e-	2a-	4a-	4cc-X	8ff]	8ff]
.	.	.	.	.	.	.	8ee-	8ee-
.	.	.	4B-	.	4d-	4b-	8ee-	8ee-
.	.	.	.	.	.	.	8ee-	8ee-
.	.	.	4e-	4g-	4g-	4cc-	4ee-	4ee-
.	.	.	4B-	4g-	4d-	4b-	8ee-	8ee-
.	.	.	.	.	.	.	8ff	8ff
=13	=13	=13	=13	=13	=13	=13	=13	=13
!!pagebreak:original
1r	1r	1B-]	4d-	1f	4f	4b-	2.dd-	2.dd-
.	.	.	4B-	.	4d-	4a-	.	.
.	.	.	4d-	.	4f	4b-	.	.
.	.	.	4B-	.	4e-	4a-	4cc	4cc
=14	=14	=14	=14	=14	=14	=14	=14	=14
1r	1r	1r	4g-	8d-L	4g-	4b-	1b-	1b-
.	.	.	.	8e-J	.	.	.	.
.	.	.	4d-	2f	4r	4a-	.	.
.	.	.	4g-	.	2r	4b-	.	.
.	.	.	4c-X	[4e-	.	4g-	.	.
=15	=15	=15	=15	=15	=15	=15	=15	=15
1r	1r	1r	4g-	4e-]	1r	4b-	[1b-	[1b-
.	.	.	4B-	2d-	.	4f	.	.
.	.	.	4g-	.	.	4b-	.	.
.	.	.	4A-	4c	.	4e-	.	.
=16	=16	=16	=16	=16	=16	=16	=16	=16
*M6/4	*M6/4	*M6/4	*M6/4	*M6/4	*M6/4	*M6/4	*M6/4	*M6/4
1.r	1.r	1.r	4g-	1.B-	1.r	4b-	1.b-_	1.b-_
.	.	.	4d-	.	.	4a-	.	.
.	.	.	4e-	.	.	4g-	.	.
.	.	.	4B-	.	.	4f	.	.
.	.	.	4c-X	.	.	4e-	.	.
.	.	.	8G-L	.	.	4d-	.	.
.	.	.	8A-J	.	.	.	.	.
=17	=17	=17	=17	=17	=17	=17	=17	=17
!!pagebreak:original
4E-	4E-	1.r	[1.B-	1.r	1.rF	1.e-	1.b-_	1.b-_
4D-	4D-	.	.	.	.	.	.	.
8E-L	8E-L	.	.	.	.	.	.	.
8FJ	8FJ	.	.	.	.	.	.	.
4G-	4G-	.	.	.	.	.	.	.
4F	4F	.	.	.	.	.	.	.
4E-	4E-	.	.	.	.	.	.	.
=18	=18	=18	=18	=18	=18	=18	=18	=18
2r	4D-	4F	1.B-]	1.r	2r	2r	1.b-_	1.b-_
.	4C	4E-	.	.	.	.	.	.
1BB-	4BB-	8FL	.	.	2r	2r	.	.
.	.	8G-J	.	.	.	.	.	.
.	4r	4A-	.	.	.	.	.	.
.	4B-	4G-	.	.	4B-	4B-	.	.
.	4B-	4F	.	.	4A-	4A-	.	.
=19	=19	=19	=19	=19	=19	=19	=19	=19
2BB-	8B-L	4G-	4e-	1.r	8B-L	8B-L	4b-]	4b-]
.	8cJ	.	.	.	8cJ	8cJ	.	.
.	4d-	4F	4d-	.	4d-	4d-	4r	4r
4G-	4G-	4c	8e-L	.	4c	4c	4b-	4b-
.	.	.	8fJ	.	.	.	.	.
4r	4E-	4c	4g-	.	4c	4c	4an	4an
4r	4D-	4B-	4f	.	4B-	4B-	8b-L	8b-L
.	.	.	.	.	.	.	8ccJ	8ccJ
4r	4BB-	4B-	8e-L	.	4g-	4g-	4dd-	4dd-
.	.	.	8d-J	.	.	.	.	.
=20	=20	=20	=20	=20	=20	=20	=20	=20
!!pagebreak:original
*M4/4	*M4/4	*M4/4	*M4/4	*M4/4	*M4/4	*M4/4	*M4/4	*M4/4
4C-X	4C-X	4c-X	4e-	1r	4g-	4g-	4ee-	4ee-
4F-X	4F-X	4B-	4d-	.	4gn	4gn	4dd-	4dd-
4E-	4E-	4c-	8e-L	.	4g-X	4g-X	8ee-L	8ee-L
.	.	.	8fJ	.	.	.	8ffJ	8ffJ
8A-L	8A-L	4cn	4g-	.	4e-	4e-	4gg-	4gg-
8AnJ	8AnJ	.	.	.	.	.	.	.
=21	=21	=21	=21	=21	=21	=21	=21	=21
*M3/4	*M3/4	*M3/4	*M3/4	*M3/4	*M3/4	*M3/4	*M3/4	*M3/4
4B-	4B-	4d-	4f	2.r	4dd-	4dd-	4ff	4ff
4A-	4A-	4c	4f	.	4cc	4cc	4ff	4ff
8B-L	8B-L	8d-L	4g-	.	4b-	4b-	8dd-L	4gg-
8cJ	8cJ	8e-J	.	.	.	.	8ee-J	.
=22	=22	=22	=22	=22	=22	=22	=22	=22
*M6/4	*M6/4	*M6/4	*M6/4	*M6/4	*M6/4	*M6/4	*M6/4	*M6/4
4d-	4d-	4f	2a-	1.r	8a-L	8a-L	4ff	2aa-
.	.	.	.	.	8b-J	8b-J	.	.
4A-	4A-	2e-	.	.	2cc-X	2cc-X	2ee-	.
4c-X	4c-X	.	2g-	.	.	.	.	2gg-
4G-	4G-	2d-	.	.	4b-	4b-	2dd-	.
4B-	4B-	.	2f	.	4b-	4b-	.	2ff
4F	4F	4c	.	.	4an	4an	4cc	.
=23	=23	=23	=23	=23	=23	=23	=23	=23
!!pagebreak:original
*M4/4	*M4/4	*M4/4	*M4/4	*M4/4	*M4/4	*M4/4	*M4/4	*M4/4
1r	1r	1r	1r	1r	1r	1r	[1dd-	[1ff
=24	=24	=24	=24	=24	=24	=24	=24	=24
1r	1r	1r	1r	1r	4b-	4dd-	1dd-]	1ff]
.	.	.	.	.	4f	4cc	.	.
.	.	.	.	.	4g-	4b-	.	.
.	.	.	.	.	4d-	4a-	.	.
=25	=25	=25	=25	=25	=25	=25	=25	=25
1r	1r	1r	4a-	1r	4a-	4cc-X	1cc-X	4ee-
.	.	.	4e-	.	4g-	4b-	.	8ee-
.	.	.	.	.	.	.	.	8ee-
.	.	.	4f-X	.	4f-X	4a-	.	8ee-
.	.	.	.	.	.	.	.	8ee-
.	.	.	4c-X	.	4e-	4g-	.	8ee-
.	.	.	.	.	.	.	.	8ff
=26	=26	=26	=26	=26	=26	=26	=26	=26
1r	1r	1r	4g-	1r	4g-	4b-	[1b-	2.dd-
.	.	.	4B-	.	2f	4f	.	.
.	.	.	4g-	.	.	4b-	.	.
.	.	.	4A-	.	4e-	4e-	.	4cc
=27	=27	=27	=27	=27	=27	=27	=27	=27
1r	1r	1r	4g-	1r	4e-	4b-	4b-]	1b-
.	.	.	4G-	.	4d-	4d-	4r	.
.	.	.	2r	.	4c	4e-	2r	.
.	.	.	.	.	4B-	4f	.	.
=28	=28	=28	=28	=28	=28	=28	=28	=28
!!pagebreak:original
4G-	4G-	2B-	2B-	1r	4e-	4e-	4dd-	4dd-
4D-	4D-	.	.	.	4f	4f	4b-	4b-
4G-	4G-	2B-	2B-	.	4e-	4e-	4dd-	4dd-
4D-	4D-	.	.	.	4f	4f	4b-	4b-
=29	=29	=29	=29	=29	=29	=29	=29	=29
4G-	4G-	2B-	2B-	4e-	4e-	4e-	4dd-	4dd-
4D-	4D-	.	.	4f	4f	4f	4b-	4b-
4G-	4G-	2B-	2B-	4g-	4e-	4e-	4dd-	4dd-
4D-	4D-	.	.	4f	4f	4f	4b-	4b-
=30	=30	=30	=30	=30	=30	=30	=30	=30
4E-	4E-	4B-	2B-	8e-L	4g-	4g-	4cc	4cc
.	.	.	.	8d-J	.	.	.	.
4BB-	4BB-	4F	.	2f	4d-	4d-	4b-	4b-
4E-	4E-	4B-	2B-	.	4g-	4g-	4cc	4cc
4BB-	4BB-	4F	.	8d-L	4d-	4d-	4b-	4b-
.	.	.	.	8cJ	.	.	.	.
=31	=31	=31	=31	=31	=31	=31	=31	=31
4BB- 4F	1F	4B-	1B-	1B-	4d-	1d-	4b-	4b-
4FF 4BB-	.	4A-	.	.	4B-	.	4a-	4a-
4BB- 4F	.	4B-	.	.	4d-	.	4b-	4b-
4FF 4BB-	.	4A-	.	.	4B-	.	4a-	4a-
=32	=32	=32	=32	=32	=32	=32	=32	=32
4BB- 4F	2F	2B-	4B-	4d-	2d-	4f	4b-	4b-
4FF 4BB-	.	.	4A-	2f	.	4d-	4a-	4a-
4BB- 4F	4F	4B-	4B-	.	4d-	4f	4b-	4b-
4EE- 4AA-	4E-	4c-X	4G-	[4e-	4c-X	4c-X	4g-	4g-
=33	=33	=33	=33	=33	=33	=33	=33	=33
!!pagebreak:original
4BB- 4F	4F	2B-	4B-	4e-]	4B-	4f	4b-	4b-
4DD- 4AA-	4D-	.	4F	2d-	2d-	4B-	4f	4f
4EE- 4BB-	4E-	4G-	4B-	.	.	4d-	4b-	4b-
4FF 4C	4F	4F	4c	4c	4c	4c	4e-	4e-
=34	=34	=34	=34	=34	=34	=34	=34	=34
*M6/4	*M6/4	*M6/4	*M6/4	*M6/4	*M6/4	*M6/4	*M6/4	*M6/4
1BB-	4G-	4B-	[1.B-	1.B-	1.B-	1.B-	4d-	4d-
.	4D-	4A-	.	.	.	.	4r	4r
.	4E-	4G-	.	.	.	.	4r	4r
.	4BB-	4F	.	.	.	.	4r	4r
4r	4C-X	4E-	.	.	.	.	4r	4r
4r	8GG-L	4D-	.	.	.	.	4r	4r
.	8AA-J	.	.	.	.	.	.	.
=35	=35	=35	=35	=35	=35	=35	=35	=35
4BB-	[1.BB-	[1.B-	1.B-_	1.r	1.r	1.r	1.r	1.r
4AA-	.	.	.	.	.	.	.	.
4GG-	.	.	.	.	.	.	.	.
4FF	.	.	.	.	.	.	.	.
4EE-	.	.	.	.	.	.	.	.
8DD-L	.	.	.	.	.	.	.	.
8CCJ	.	.	.	.	.	.	.	.
=36	=36	=36	=36	=36	=36	=36	=36	=36
1.BBB-;	1.BB-;]	1.B-]	1.B-;]	1.r;	1.r;	1.r;	1.r;	1.r;
==	==	==	==	==	==	==	==	==
*-	*-	*-	*-	*-	*-	*-	*-	*-
